X: 4404
T: "RIFLE" GALOP
R: Galop
%R: galop, march
B: James Kerr "Merry Melodies" v.4 p.44 #404
Z: 2016 John Chambers <jc:trillian.mit.edu>
M: 2/4
L: 1/8
K: G
|:\
d>dd>d | dBGB | defg | (gf)f2 |\
c>cc>c | cAFA | cdef |[1 (ed)B2 :|[2 gz [gB]z H|:\
a2eg | fed2 | eB^cA | defg |
a2eg | fed2 | eB^cA |[1 defg :|[2 dd/d/ dd/"_D.C."d/ |]\
[K:=f][K:C]\
|:"^Trio."\
CG,/C/ EC/E/ | G3z | cG/c/ ec/e/ | g3z |\
Gdde | dccB |
[1 ABce | dBGz :|[2 AdBG | ccc |:\
e |\
eddc | Bd2B | Ad2A | Bd2e |\
eddc | Bd2B | Aed^F |[1 G3 :|[2 G=FE"_D.C."D !segno!|]

%%sep 1 1 500
%%sep 1 1 500

